packages/foundations/assets/icons/functional/images/editing/plus.svg

<svg xmlns="http://www.w3.org/2000/svg" width="32" height="32" fill="none"><path fill="#1A1C1F" fill-rule="evenodd" d="M15.507 6.137a1.1 1.1 0 0 0-.347.327l-.147.221-.014 4.151-.015 4.151h-3.969c-2.698 0-4.058.019-4.245.059-.751.161-1.022 1.102-.475 1.649.113.113.296.23.408.261.135.038 1.564.057 4.244.057h4.04v4.04c0 2.68.019 4.109.057 4.244.031.112.148.295.261.408.518.518 1.434.293 1.643-.406.049-.164.065-1.221.065-4.252v-4.034h4.04c2.68 0 4.109-.019 4.244-.057.112-.031.295-.148.408-.261.547-.547.276-1.488-.475-1.649-.187-.04-1.547-.059-4.245-.059h-3.969l-.015-4.151-.014-4.151-.147-.221c-.276-.417-.882-.565-1.333-.327"/></svg>

<svg width="32" height="32" viewBox="0 0 32 32" fill="none" xmlns="http://www.w3.org/2000/svg"><path d="M15.507 6.137 C 15.396 6.195,15.240 6.342,15.160 6.464 L 15.013 6.685 14.999 10.836 L 14.984 14.987 11.015 14.987 C 8.317 14.987,6.957 15.006,6.770 15.046 C 6.019 15.207,5.748 16.148,6.295 16.695 C 6.408 16.808,6.591 16.925,6.703 16.956 C 6.838 16.994,8.267 17.013,10.947 17.013 L 14.987 17.013 14.987 21.053 C 14.987 23.733,15.006 25.162,15.044 25.297 C 15.075 25.409,15.192 25.592,15.305 25.705 C 15.823 26.223,16.739 25.998,16.948 25.299 C 16.997 25.135,17.013 24.078,17.013 21.047 L 17.013 17.013 21.053 17.013 C 23.733 17.013,25.162 16.994,25.297 16.956 C 25.409 16.925,25.592 16.808,25.705 16.695 C 26.252 16.148,25.981 15.207,25.230 15.046 C 25.043 15.006,23.683 14.987,20.985 14.987 L 17.016 14.987 17.001 10.836 L 16.987 6.685 16.840 6.464 C 16.564 6.047,15.958 5.899,15.507 6.137 " fill="#1A1C1F" stroke="none" fill-rule="evenodd"></path></svg>
